dist/img/icons/electric.svg

<svg height="496pt" viewBox="-112 0 496 496" width="496pt" xmlns="http://www.w3.org/2000/svg"><path d="m256 40.0625v-40.0625h-48v64h-16v-64h-48v64h-16v-64h-48v64h-16v-64h-48v40.0625c-8.871094.363281-16 7.632812-16 16.59375v71.34375c0 10.414062 6.710938 19.214844 16 22.527344v50.847656c0 6.410156 2.496094 12.441406 7.03125 16.976562l23.046875 23.046876c1.378906 1.378906 2.203125 3.203124 2.328125 5.144531l14.640625 227.015625c.816406 12.585937 11.34375 22.441406 23.953125 22.441406h98c12.609375 0 23.136719-9.855469 23.953125-22.457031l14.640625-227.007813c.125-1.941406.949219-3.765625 2.328125-5.144531l23.046875-23.046875c4.535156-4.527344 7.03125-10.558594 7.03125-16.976562v-50.847657c9.289062-3.3125 16-12.113281 16-22.527343v-71.335938c0-8.953125-7.128906-16.230469-16-16.59375zm-208-24.0625v64h48v-64h16v64h48v-64h16v64h48v-64h16v34.28125c-.480469 1.160156-.878906 2.359375-1.097656 3.648438l-8.34375 50.070312h-189.117188l-8.34375-50.070312c-.21875-1.289063-.617187-2.488282-1.097656-3.648438v-34.28125zm189.65625 191.03125-23.046875 23.046875c-4.128906 4.128906-6.609375 9.609375-6.984375 15.425781l-14.640625 227.007813c-.273437 4.199219-3.785156 7.488281-7.984375 7.488281h-98c-4.199219 0-7.710938-3.289062-7.984375-7.488281l-14.640625-227.007813c-.375-5.824218-2.863281-11.296875-6.984375-15.425781l-23.046875-23.046875c-1.511719-1.511719-2.34375-3.527344-2.34375-5.664062v-49.367188h56v248c0 13.230469 10.769531 24 24 24h48c13.230469 0 24-10.769531 24-24v-248h56v49.367188c0 2.136718-.832031 4.152343-2.34375 5.664062zm-133.65625-55.03125h64v248c0 4.40625-3.585938 8-8 8h-48c-4.414062 0-8-3.59375-8-8zm152-24c0 4.40625-3.585938 8-8 8h-224c-4.414062 0-8-3.59375-8-8v-71.335938c0-.367187.296875-.664062.664062-.664062.320313 0 .59375.230469.648438.550781l10.574219 63.449219h216.21875l10.574219-63.449219c.121093-.6875 1.304687-.574219 1.3125.113281zm0 0"/><path d="m120 328h32v16h-32zm0 0"/><path d="m120 360h32v16h-32zm0 0"/><path d="m128 168h16v16h-16zm0 0"/><path d="m128 200h16v64h-16zm0 0"/><path d="m128 280h16v16h-16zm0 0"/></svg>

<svg height="496pt" viewBox="-112 0 496 496" width="496pt" xmlns="http://www.w3.org/2000/svg"><path d="M256 40.063V0h-48v64h-16V0h-48v64h-16V0H80v64H64V0H16v40.063c-8.871.363-16 7.632-16 16.593V128c0 10.414 6.71 19.215 16 22.527v50.848c0 6.41 2.496 12.441 7.031 16.977l23.047 23.046a7.992 7.992 0 0 1 2.328 5.145l14.64 227.016C63.864 486.145 74.392 496 87 496h98c12.61 0 23.137-9.855 23.953-22.457l14.64-227.008a7.992 7.992 0 0 1 2.329-5.144l23.047-23.047c4.535-4.528 7.031-10.559 7.031-16.977V150.52c9.29-3.313 16-12.114 16-22.528V56.656c0-8.953-7.129-16.23-16-16.594zM48 16v64h48V16h16v64h48V16h16v64h48V16h16v34.281c-.48 1.16-.879 2.36-1.098 3.649L230.56 104H41.44l-8.343-50.07c-.22-1.29-.618-2.489-1.098-3.649V16zm189.656 191.031l-23.047 23.047a23.994 23.994 0 0 0-6.984 15.426l-14.64 227.008C192.71 476.71 189.198 480 185 480H87c-4.2 0-7.71-3.29-7.984-7.488L64.375 245.504a24.016 24.016 0 0 0-6.984-15.426l-23.047-23.047A7.963 7.963 0 0 1 32 201.367V152h56v248c0 13.23 10.77 24 24 24h48c13.23 0 24-10.77 24-24V152h56v49.367a7.963 7.963 0 0 1-2.344 5.664zM104 152h64v248c0 4.406-3.586 8-8 8h-48c-4.414 0-8-3.594-8-8zm152-24c0 4.406-3.586 8-8 8H24c-4.414 0-8-3.594-8-8V56.664c0-.367.297-.664.664-.664.32 0 .594.23.648.55L27.887 120h216.218l10.575-63.45c.12-.687 1.304-.573 1.312.114zm0 0"/><path d="M120 328h32v16h-32zm0 0M120 360h32v16h-32zm0 0M128 168h16v16h-16zm0 0M128 200h16v64h-16zm0 0M128 280h16v16h-16zm0 0"/></svg>
